svg/fluentui-system-icons/ic_fluent_star_half_16_regular.svg

<svg width="16" height="16" viewBox="0 0 16 16" fill="none" xmlns="http://www.w3.org/2000/svg">
<path d="M5.67281 5.18335L7.1939 2.1013C7.3588 1.76717 7.67932 1.59994 8 1.59961C8.32132 1.59928 8.64279 1.76651 8.80802 2.1013L10.3291 5.18335L13.7304 5.67758C14.4685 5.78485 14.7633 6.69202 14.2291 7.21271L11.768 9.61175L12.349 12.9993C12.4751 13.7345 11.7034 14.2951 11.0431 13.948L8.00096 12.3487L4.95879 13.948C4.29853 14.2951 3.52684 13.7345 3.65294 12.9993L4.23394 9.61175L1.77277 7.21271C1.23861 6.69203 1.53336 5.78485 2.27156 5.67758L5.67281 5.18335ZM8 11.3357C8.14418 11.3355 8.28838 11.37 8.41977 11.4391L11.3291 12.9686L10.7735 9.72898C10.7234 9.43703 10.8202 9.13913 11.0323 8.93236L13.386 6.63805L10.1333 6.1654C9.84014 6.12281 9.58673 5.93869 9.45564 5.67306L8.00096 2.72556L8 2.72751V11.3357Z" fill="#212121"/>
</svg>

<svg xmlns="http://www.w3.org/2000/svg" width="16" height="16"><path d="m5.673 5.183 1.52-3.082A.89.89 0 0 1 8 1.6a.89.89 0 0 1 .808.501l1.521 3.082 3.401.495a.9.9 0 0 1 .5 1.535l-2.462 2.399.581 3.387a.9.9 0 0 1-1.306.949l-3.042-1.6-3.042 1.6a.9.9 0 0 1-1.306-.949l.58-3.387-2.46-2.4a.9.9 0 0 1 .499-1.534l3.4-.495ZM8 11.336c.144 0 .288.034.42.103l2.91 1.53-.556-3.24a.9.9 0 0 1 .258-.797l2.354-2.294-3.253-.473a.9.9 0 0 1-.677-.492L8 2.726v8.61Z"/></svg>
